www/assets/images/icon-user.svg

<svg fill="none" height="23" viewBox="0 0 22 23" width="22" xmlns="http://www.w3.org/2000/svg"><path d="m11 2.43612c-1.77793.00338-3.51648.5237-5.00391 1.49759s-2.65956 2.35932-3.3736 3.98753-.93918 3.42896-.648 5.18286 1.08611 3.3852 2.28797 4.6954c.85839.9304 1.9002 1.673 3.05978 2.1809s2.41179.7701 3.67776.7701c1.2659 0 2.5181-.2622 3.6777-.7701s2.2014-1.2505 3.0598-2.1809c1.2018-1.3102 1.9968-2.9415 2.2879-4.6954.2912-1.7539.0661-3.55465-.648-5.18286-.714-1.62821-1.8861-3.01364-3.3736-3.98753-1.4874-.97389-3.2259-1.49421-5.0038-1.49759zm0 16.49998c-1.89894-.0029-3.7227-.7422-5.08754-2.0625.41438-1.0087 1.11928-1.8715 2.02515-2.4788.90587-.6072 1.9718-.9314 3.06239-.9314 1.0905 0 2.1564.3242 3.0623.9314.9059.6073 1.6108 1.4701 2.0252 2.4788-1.3649 1.3203-3.1886 2.0596-5.0875 2.0625zm-1.83337-9.16665c0-.3626.10752-.71705.30897-1.01854s.48778-.53648.8228-.67524c.335-.13876.7036-.17506 1.0592-.10432.3557.07073.6823.24534.9387.50174s.431.58306.5018.9387c.0707.35563.0344.72421-.1044 1.05921-.1387.335-.3737.6214-.6752.8228-.3015.2015-.6559.309-1.0185.309-.4863 0-.9526-.1932-1.2964-.537-.34382-.3438-.53697-.8101-.53697-1.29635zm8.16747 5.50005c-.819-1.4009-2.0795-2.4906-3.5841-3.0984.4667-.5292.7708-1.1819.8758-1.8797.105-.69775.0064-1.41101-.2839-2.05416s-.7601-1.18886-1.3529-1.57165c-.5927-.3828-1.2834-.58641-1.989-.58641-.7057 0-1.39633.20361-1.98912.58641-.59279.38279-1.06253.9285-1.35286 1.57165-.29032.64315-.3889 1.35641-.28391 2.05416.105.6978.40912 1.3505.87585 1.8797-1.50461.6078-2.76515 1.6975-3.58416 3.0984-.65272-1.1119-.99759-2.3775-.99917-3.6667 0-1.94494.77262-3.8102 2.14788-5.18546 1.37527-1.37527 3.24053-2.14789 5.18549-2.14789 1.9449 0 3.8101.77262 5.1854 2.14789 1.3753 1.37526 2.1479 3.24052 2.1479 5.18546-.0016 1.2892-.3465 2.5548-.9992 3.6667z" fill="#fff"/></svg>

<svg width="22" height="23" viewBox="0 0 22 23" fill="none" xmlns="http://www.w3.org/2000/svg">
<path d="M11 2.43612C9.22207 2.4395 7.48352 2.95982 5.99609 3.93371C4.50866 4.9076 3.33653 6.29303 2.62249 7.92124C1.90845 9.54945 1.68331 11.3502 1.97449 13.1041C2.26567 14.858 3.0606 16.4893 4.26246 17.7995C5.12085 18.7299 6.16266 19.4725 7.32224 19.9804C8.48182 20.4883 9.73403 20.7505 11 20.7505C12.2659 20.7505 13.5181 20.4883 14.6777 19.9804C15.8373 19.4725 16.8791 18.7299 17.7375 17.7995C18.9393 16.4893 19.7343 14.858 20.0254 13.1041C20.3166 11.3502 20.0915 9.54945 19.3774 7.92124C18.6634 6.29303 17.4913 4.9076 16.0038 3.93371C14.5164 2.95982 12.7779 2.4395 11 2.43612ZM11 18.9361C9.10106 18.9332 7.2773 18.1939 5.91246 16.8736C6.32684 15.8649 7.03174 15.0021 7.93761 14.3948C8.84348 13.7876 9.90941 13.4634 11 13.4634C12.0905 13.4634 13.1564 13.7876 14.0623 14.3948C14.9682 15.0021 15.6731 15.8649 16.0875 16.8736C14.7226 18.1939 12.8989 18.9332 11 18.9361ZM9.16663 9.76945C9.16663 9.40685 9.27415 9.0524 9.4756 8.75091C9.67705 8.44942 9.96338 8.21443 10.2984 8.07567C10.6334 7.93691 11.002 7.90061 11.3576 7.97135C11.7133 8.04208 12.0399 8.21669 12.2963 8.47309C12.5527 8.72949 12.7273 9.05615 12.7981 9.41179C12.8688 9.76742 12.8325 10.136 12.6937 10.471C12.555 10.806 12.32 11.0924 12.0185 11.2938C11.717 11.4953 11.3626 11.6028 11 11.6028C10.5137 11.6028 10.0474 11.4096 9.7036 11.0658C9.35978 10.722 9.16663 10.2557 9.16663 9.76945ZM17.3341 15.2695C16.5151 13.8686 15.2546 12.7789 13.75 12.1711C14.2167 11.6419 14.5208 10.9892 14.6258 10.2914C14.7308 9.59365 14.6322 8.88039 14.3419 8.23724C14.0516 7.59409 13.5818 7.04838 12.989 6.66559C12.3963 6.28279 11.7056 6.07918 11 6.07918C10.2943 6.07918 9.60367 6.28279 9.01088 6.66559C8.41809 7.04838 7.94835 7.59409 7.65802 8.23724C7.3677 8.88039 7.26912 9.59365 7.37411 10.2914C7.47911 10.9892 7.78323 11.6419 8.24996 12.1711C6.74535 12.7789 5.48481 13.8686 4.6658 15.2695C4.01308 14.1576 3.66821 12.892 3.66663 11.6028C3.66663 9.65786 4.43925 7.7926 5.81451 6.41734C7.18978 5.04207 9.05504 4.26945 11 4.26945C12.9449 4.26945 14.8101 5.04207 16.1854 6.41734C17.5607 7.7926 18.3333 9.65786 18.3333 11.6028C18.3317 12.892 17.9868 14.1576 17.3341 15.2695Z" fill="white"/>
</svg>
